img/icons/files/video.svg

<?xml version="1.0" encoding="UTF-8"?>
<svg width="30px" height="40px" viewBox="0 0 30 40" version="1.1" xmlns="http://www.w3.org/2000/svg" xmlns:xlink="http://www.w3.org/1999/xlink">
    <title>video</title>
    <g id="Layout" stroke="none" stroke-width="1" fill="none" fill-rule="evenodd">
        <g id="01-home-page" transform="translate(-445.000000, -389.000000)" fill="#777777">
            <g id="video" transform="translate(445.000000, 389.000000)">
                <path d="M30,9.53125263 L30,10 L20,10 L20,0 L20.4687474,0 C20.9895842,0 21.4322895,0.182289474 21.7968737,0.546873684 L29.4531263,8.20312632 C29.8177105,8.56771053 30,9.01041579 30,9.53125263 Z M17.5,10.625 C17.5,11.1458368 17.6822895,11.5885421 18.0468737,11.9531263 C18.4114579,12.3177105 18.8541632,12.5 19.375,12.5 L30,12.5 L30,38.125 C30,38.6458358 29.8177105,39.08854 29.4531263,39.4531253 C29.0885421,39.8177102 28.6458368,40 28.125,40 L1.875,40 C1.35416421,40 0.91146,39.8177102 0.546874737,39.4531253 C0.182289842,39.08854 0,38.6458358 0,38.125 L0,1.875 C0,1.35416316 0.182289842,0.911457895 0.546874737,0.546873684 C0.91146,0.182289474 1.35416421,0 1.875,0 L17.5,0 L17.5,10.625 Z M25,21.875 C25,21.0416632 24.6093789,20.4687526 23.8281263,20.1562526 C23.0468737,19.8437474 22.3697947,19.9739579 21.7968737,20.5468737 L17.5,24.8437474 L17.5,21.875 C17.5,21.3541632 17.3177105,20.9114579 16.9531263,20.5468737 C16.5885421,20.1822895 16.1458368,20 15.625,20 L6.875,20 C6.35416316,20 5.91145789,20.1822895 5.54687368,20.5468737 C5.18229,20.9114579 5,21.3541632 5,21.875 L5,30.625 C5,31.1458368 5.18229,31.5885421 5.54687368,31.9531263 C5.91145789,32.3177105 6.35416316,32.5 6.875,32.5 L15.625,32.5 C16.1458368,32.5 16.5885421,32.3177105 16.9531263,31.9531263 C17.3177105,31.5885421 17.5,31.1458368 17.5,30.625 L17.5,27.6562526 L21.7968737,31.9531263 C22.3697947,32.5260421 23.0468737,32.6562526 23.8281263,32.3437474 C24.6093789,32.0312474 25,31.4583368 25,30.625 L25,21.875 Z" id="Fill-1"></path>
            </g>
        </g>
    </g>
</svg>

<svg width="30" height="40" xmlns="http://www.w3.org/2000/svg">
  <path d="M30 9.5v.5H20V0h.5c.5 0 1 .2 1.3.5l7.7 7.7c.3.4.5.8.5 1.3Zm-12.5 1.1c0 .5.2 1 .5 1.4.4.3.9.5 1.4.5H30v25.6c0 .5-.2 1-.5 1.4-.4.3-.9.5-1.4.5H2c-.5 0-1-.2-1.4-.5C.2 39 0 38.6 0 38V2C0 1.4.2.9.5.5 1 .2 1.4 0 2 0h15.6v10.6ZM25 22c0-.9-.4-1.4-1.2-1.7-.8-.4-1.4-.2-2 .3l-4.3 4.3v-3c0-.4-.2-.9-.5-1.3-.4-.3-.9-.5-1.4-.5H7c-.5 0-1 .2-1.4.5-.3.4-.5.9-.5 1.4v8.7c0 .5.2 1 .5 1.4.4.3.9.5 1.4.5h8.7c.5 0 1-.2 1.4-.5.3-.4.5-.9.5-1.4v-3l4.3 4.4c.6.5 1.2.7 2 .3.8-.3 1.2-.8 1.2-1.7V22Z" fill="#777" fill-rule="evenodd"/>
</svg>
